X: 32002
T: Peeler And The Goat, The
R: jig
M: 6/8
K: Bminor
|:dcB cBA|B2 c d2 e|fgf e2 d|c2 A ABc|
dcB cBA|B2 c d2 e|fga f2 e|f2 B B3:|
|:a2 f d2 e|f2 b b2 f|a2 f e2 d|c2 A ABc|
dcb cBA|B2 c d2 e|fga f2 e|f2 B B3:|

